X:1
T:Title
%%score { ( 1 3 ) | ( 2 4 ) }
L:1/8
M:9/8
K:Bb
V:1 treble nm="Grand Piano"
V:3 treble 
V:2 bass 
V:4 bass 
V:1
 z3 z3[Q:1/4=100] FGF | B3 F3 z3 | A6 z3 | A3 E3 z3 | F6 z3 | [DB]3[K:bass][K:treble] [DF]3 z3 | %6
[M:3/4] c6 |[M:3/8] edc |[M:9/8] d3 [DF]3 z3 |[M:3/4] [B,DB]6 |[M:3/8] z cd |[M:9/8] [Ge]6 z3 | %12
 B,B,>B, .B,3 Bcd | [=Ec]3 .[EG]3 z3 | c6 dcB |[M:3/4] [DF]6 |[M:3/8] Bc>d |[M:9/8] [Ge]6 z3 | %18
 d6 z3 |[M:3/4] B6 |] %20
V:2
 z9 | [B,,F,][B,,F,][B,,F,] [B,,B,]2 [B,,B,] z3 | [F,CE][F,C][F,C] .[F,C]3 z3 | %3
 [F,CE][F,C][F,C] [F,A,C]2 [F,A,] z3 | [B,,B,][B,,B,][B,,B,] .[B,,B,]3 DED | %5
 [B,,F,]B,,B,, B,,2 B,,[K:treble] EFG |[M:3/4][K:bass] E6 |[M:3/8][K:treble] GFE | %8
[M:9/8][K:bass] F3 z3 z3 |[M:3/4] B,,6 |[M:3/8][K:treble] BA_A | %11
[M:9/8][K:bass] [E,B,]E,E, E,3 E[K:treble]G>E | B,,B,,>B,, .B,,3 D[K:treble]EF | %13
 [C,B,]C,C, C,C,C, [C,B,]2 [C,B,] | [F,A,F]6 FED |[M:3/4][K:bass] B,,B,, B,, .B,,3 | %16
[M:3/8] z[K:treble] A>_A |[M:9/8][K:bass] [E,B,]E,>E, .E,3 E[K:treble]FG | F6 z3 | %19
[M:3/4] z A, G, .F,3 |] %20
V:3
 x9 | DDD D2 D GFB | z EE .E3 cGB | z EE z2 C GAG | DDD .D3 FGF | %5
 z[K:bass] F,F,[K:treble] B,2 B, GAB |[M:3/4] z G, G, .G,3 |[M:3/8] x3 |[M:9/8] z B,B, B,2 B, ABc | %9
[M:3/4] x6 |[M:3/8] x3 |[M:9/8] z B,B, B,3 GB>G | [DF]6 z3 | z B,B, B,B,[B,=EG] [Ec]2 [Ed] | x9 | %15
[M:3/4] B,B, B, .B,3 |[M:3/8] x3 |[M:9/8] z B,>B, .B,3 GAB | z B,B, B,2 B A2 c | %19
[M:3/4] [B,D]F E .D3 |] %20
V:4
 x9 | x9 | x9 | x9 | x9 | x6[K:treble] x3 |[M:3/4][K:bass] [E,G,]E, E, .E,3 |[M:3/8][K:treble] x3 | %8
[M:9/8][K:bass] [F,B,]F,F, F,2 F, [F,CE][F,B,D][F,A,E] |[M:3/4] x6 |[M:3/8][K:treble] x3 | %11
[M:9/8][K:bass] x7[K:treble] x2 | x7[K:treble] x2 | x9 | x9 |[M:3/4][K:bass] x6 | %16
[M:3/8] x[K:treble] x2 |[M:9/8][K:bass] x7[K:treble] x2 | [F,B,]F,F, F,2 [F,B,D] [F,CE]2 [F,A,E] | %19
[M:3/4] B,,6 |] %20

